X:122
T:Peggy Perkins. RHu.122
S:R.Hughes MS,1823,Whitchurch,Shrops.
N:last note in bar eight is cr in ms. I’ve added a rest as lead in to B
N:music. Last note in bar sixteen is cr in ms
A:Whitchurch, Shropshire
Z:Tony Weatherall 2006
M:2/4
L:1/8
Q:1/4=100
R:Country Dance
K:D
A|d/e/d/A/ f/g/f/d/|aaaf|g/a/g/e/ f/g/f/d/|eeeA|!
d/e/d/A/|f/g/f/d/|aaaf|g/a/g/e/ f/a/e/c/|dd”” d:|!
|:””z|A/B/c/d/ e/f/g/e/|fd d2|g/a/g/e/ f/g/f/d/|c/d/e/c/ A2|!
A/B/c/d/ e/f/g/e/|fd d2|e/f/g/e/ c/d/e/c/|dd “”d:|

